X: 59
T: We Three Kings
M: 3/8 % time signature
L: 1/4 % default length
%%staves (S1V1 S1V2) | (S2V1 S2V2) 
V: S1V1 clef=treble 
%%MIDI beat 127 125 110 1
V: S1V2 
%%MIDI beat 127 125 110 1
V: S2V1 clef=bass 
%%MIDI beat 127 125 110 1
V: S2V2 
%%MIDI beat 127 125 110 1
K: G % key signature
%
%%MIDI program 1 0 % Piano 1
%%MIDI program 2 0 % Piano 1
%%MIDI program 3 0 % Piano 1
%%MIDI program 4 0 % Piano 1
%
% 1
[V: S1V1] [Q:1/4=80] B A/ | G E/ | F/ G/ F/ | E3/2 | B A/ | G E/ | F/ G/ F/ | E3/2 | 
w: 1.~We three kings of Or- i- ent are; Bear- ing gifts we tra- verse a- far,
w: 2.~Born a King on Beth- le- hem's plain, Gold I bring to crown him a- gain, 
w: 3.~Frank- in- cense to of- fer have I; In- cense owns a De- i- ty nigh; 
w: 4.~Myrrh is mine; its bit- ter per- fume Breathes a life of ga- ther- ing gloom; 
w: 5.~Glor- ious now be- hold him a- rise; King and God and sa - cri- fice:
[V: S1V2] G F/ | E E/ | ^D/ D/ D/ | E3/2 | G F/ | E E/ | ^D/ D/ D/ | E3/2 |
[V: S2V1] B, B,/ | B, G,/ | A,/ B,/ A,/ | G,3/2 | B, B,/ | B, G,/ | A,/ B,/ A,/ | G,3/2 | 
[V: S2V2] E, E,/ | E E/ | B,,/ B,,/ B,,/ | E,3/2 | E, E,/ | E, E,/ | B,,/ B,,/ B,,/ | E,3/2 | 
% 5
[V: S1V1] G G/ | A A/ | B B/ | (d/c/) B/ | A/  B/ A/ | G F/ | "^         To Refrain" (E3/2 E3/2) | 
w: Field and fount- ain, moor and mount - ain, Fol- low- ing yon- der star.
w: King for- ev- er, ceas- ing ne - ver, o- ver us all to reign.
w: Prayer and prais- ing, voic- es rais - ing, wor- ship- ing God on high.
w: Sor- rowing, sigh- ing, bleed- ing, dy - ing, sealed in the stone cold tomb.
w: Al- le- lu- ia, Al- le- lu - ia, sounds through the earth and skies.
[V: S1V2] E E/ | F F/ | G G/ | (G/F/) G/ | E/ E/ E/ | E ^D/ | (E3/2 E3/2) |
[V: S2V1] B, B,/ | D D/ | D D/ | B,/ C/ D/ | C/ C/ C/ | B, A,/ | (G,3/2  G,3/2) | 
[V: S2V2] E, E,/ | D, D,/ | G,  G,/ | (B,/A,/) G,/ | A,/ A,/ A,/ | B, B,,/ | (E,3/2 E,3/2) | 
% 9
[V: S1V1] "^Refrain" (F3/2 | A3/2) | G G/ | G D/ | G E/ | G3/2 | G G/ | G D/ | G E/ | G3/2 | 
w: O * star of won- der, star of light, Star with roy- al beau- ty bright,
[V: S1V2] D3/2 | D3/2 | D D/ | D B,/ | E C/ | D3/2 | D D/ | D B,/ | E C/ | D3/2 | 
[V: S2V1] (A,3/2 | C3/2) | B, B,/ | B, G,/ | G, G,/ | B,3/2 | B, B,/ | B, G,/ | B, G,/ | [B,3/2 G,3/2] |
[V: S2V2] D,3/2 | D,3/2 | G, G,/ | G, G,/ | C, C,/ | G,3/2 | G, G,/ | G, G,/ | E, C,/ | G,,3/2 | 
%
[V: S1V1] G G/ | A B/ | c B/ | A B/ | G G/ | G D/ | G E/ | G3/2 |]
w: West- ward lead- ing, still pro- ceed- ing, Guide us to thy per- fect light.
[V: S1V2] E E/ | F G/ | G G/ | F G/ | D D/ | D B,/ | E C/ | D3/2 |] 
[V: S2V1] B, B,/ | D D/ | E D/ | D D/ | B, B,/ | B, B,/ | G, G,/ | [B,3/2 G,3/2] |]
[V: S2V2] E, E,/ | D, G,/ | C, G,/ | D, G,/ | G, G,/ | G, G,/ | C, C,/ | G,,3/2 |] 

